svgs/sharp-light/alt.svg

<svg xmlns="http://www.w3.org/2000/svg" viewBox="0 0 640 512"><!--! Font Awesome Pro 6.6.0 by @fontawesome - https://fontawesome.com License - https://fontawesome.com/license (Commercial License) Copyright 2024 Fonticons, Inc. --><path d="M464 64l-7.6 0-4.8 5.9L168.4 416 16 416 0 416l0 32 16 0 160 0 7.6 0 4.8-5.9L471.6 96 624 96l16 0 0-32-16 0L464 64zM432 416l-16 0 0 32 16 0 192 0 16 0 0-32-16 0-192 0z"/></svg>

<svg xmlns="http://www.w3.org/2000/svg" viewBox="0 0 640 512"><!--! Font Awesome Pro 6.4.2 by @fontawesome - https://fontawesome.com License - https://fontawesome.com/license (Commercial License) Copyright 2023 Fonticons, Inc. --><path d="M464 64h-7.6l-4.8 5.9L168.4 416H16 0v32H16 176h7.6l4.8-5.9L471.6 96H624h16V64H624 464zM432 416H416v32h16H624h16V416H624 432z"/></svg>
